src/assets/footer/Tg.svg

<svg fill="none" height="37" viewBox="0 0 36 37" width="36" xmlns="http://www.w3.org/2000/svg"><circle cx="18" cy="18.7598" r="17.25" stroke="#000" stroke-opacity=".1" stroke-width="1.5"/><path d="m9.23527 17.5834s7.59913-3.1187 10.23463-4.2169c1.0103-.4392 4.4365-1.8448 4.4365-1.8448s1.5813-.615 1.4495.8785c-.044.6149-.3953 2.7673-.7467 5.0953-.5272 3.2944-1.0982 6.8963-1.0982 6.8963s-.0878 1.0103-.8345 1.186c-.7468.1757-1.9767-.6149-2.1963-.7907-.1758-.1317-3.2944-2.1084-4.4365-3.0747-.3075-.2636-.6589-.7907.0439-1.4056 1.5813-1.4496 3.4701-3.2505 4.6122-4.3926.5271-.5271 1.0542-1.757-1.1421-.2636-3.1187 2.1524-6.1934 4.173-6.1934 4.173s-.7029.4392-2.0206.0439c-1.3178-.3953-2.85521-.9224-2.85521-.9224s-1.05415-.6589.74678-1.3617z" fill="#000" fill-opacity=".5"/></svg>

<svg width="36" height="37" viewBox="0 0 36 37" fill="none" xmlns="http://www.w3.org/2000/svg">
<circle cx="18" cy="18.7598" r="17.25" stroke="black" stroke-opacity="0.1" stroke-width="1.5"/>
<path d="M9.23527 17.5834C9.23527 17.5834 16.8344 14.4647 19.4699 13.3665C20.4802 12.9273 23.9064 11.5217 23.9064 11.5217C23.9064 11.5217 25.4877 10.9067 25.3559 12.4002C25.3119 13.0151 24.9606 15.1675 24.6092 17.4955C24.082 20.7899 23.511 24.3918 23.511 24.3918C23.511 24.3918 23.4232 25.4021 22.6765 25.5778C21.9297 25.7535 20.6998 24.9629 20.4802 24.7871C20.3044 24.6554 17.1858 22.6787 16.0437 21.7124C15.7362 21.4488 15.3848 20.9217 16.0876 20.3068C17.6689 18.8572 19.5577 17.0563 20.6998 15.9142C21.2269 15.3871 21.754 14.1572 19.5577 15.6506C16.439 17.803 13.3643 19.8236 13.3643 19.8236C13.3643 19.8236 12.6614 20.2628 11.3437 19.8675C10.0259 19.4722 8.48849 18.9451 8.48849 18.9451C8.48849 18.9451 7.43434 18.2862 9.23527 17.5834Z" fill="black" fill-opacity="0.5"/>
</svg>
